tools/download-figma-icons/icons/outlined-medium/distance.svg

<svg width="24" height="24" viewBox="0 0 24 24" fill="none" xmlns="http://www.w3.org/2000/svg">
<path fill-rule="evenodd" clip-rule="evenodd" d="M19.5055 8.82582C18.3962 7.96559 16.4995 6.12288 16.4995 4.34991C16.4995 2.77869 17.845 1.49997 19.4995 1.49997C21.1254 1.49997 22.4994 2.84244 22.4994 4.43241C22.4994 6.19037 20.6124 7.98734 19.5055 8.82582ZM19.4995 0C17.0185 0 14.9995 1.95146 14.9995 4.34991C14.9995 7.57485 18.913 10.2583 19.0795 10.3715C19.2062 10.457 19.3532 10.4998 19.4995 10.4998C19.6427 10.4998 19.7852 10.4593 19.9104 10.3775C20.0777 10.2688 23.9994 7.66409 23.9994 4.43241C23.9994 1.98821 21.9812 0 19.4995 0ZM1.49997 14.9319C1.49997 13.3427 2.87394 12.0002 4.49991 12.0002C6.12588 12.0002 7.49985 13.3427 7.49985 14.9319C7.49985 16.6936 5.60539 18.4943 4.49916 19.3306C3.39293 18.4966 1.49997 16.7004 1.49997 14.9319ZM4.49991 21C4.64241 21 4.78565 20.9588 4.9109 20.8778C5.07815 20.7683 8.99982 18.1643 8.99982 14.9319C8.99982 12.4877 6.98161 10.5003 4.49991 10.5003C2.01821 10.5003 0 12.4877 0 14.9319C0 18.1643 3.92167 20.7683 4.08892 20.8778C4.21416 20.9588 4.35741 21 4.49991 21ZM4.49991 13.5C5.32789 13.5 5.99988 14.172 5.99988 15C5.99988 15.8279 5.32789 16.4999 4.49991 16.4999C3.67193 16.4999 2.99994 15.8279 2.99994 15C2.99994 14.172 3.67193 13.5 4.49991 13.5ZM19.4996 3.00021C18.6716 3.00021 17.9996 3.67219 17.9996 4.50018C17.9996 5.32816 18.6716 6.00015 19.4996 6.00015C20.3276 6.00015 20.9996 5.32816 20.9996 4.50018C20.9996 3.67219 20.3276 3.00021 19.4996 3.00021ZM19.4996 13.5H13.8747C12.8405 13.5 11.9998 14.3407 11.9998 15.375C11.9998 16.4092 12.8405 17.2499 13.8747 17.2499H16.8747C18.7354 17.2499 20.2496 18.7641 20.2496 20.6248C20.2496 22.4856 18.7354 23.9998 16.8747 23.9998H4.49991C4.08517 23.9998 3.74992 23.6645 3.74992 23.2498C3.74992 22.8351 4.08517 22.4998 4.49991 22.4998H16.8747C17.9089 22.4998 18.7496 21.6591 18.7496 20.6248C18.7496 19.5906 17.9089 18.7499 16.8747 18.7499H13.8747C12.014 18.7499 10.4998 17.2357 10.4998 15.375C10.4998 13.5142 12.014 12 13.8747 12H19.4996C19.9143 12 20.2496 12.3353 20.2496 12.75C20.2496 13.1648 19.9143 13.5 19.4996 13.5Z" fill="black"/>
</svg>

<svg xmlns="http://www.w3.org/2000/svg" width="24" height="24" fill="none" viewBox="0 0 24 24"><path fill="currentColor" fill-rule="evenodd" d="M19.506 8.826c-1.11-.86-3.006-2.703-3.006-4.476 0-1.571 1.345-2.85 3-2.85 1.625 0 3 1.342 3 2.932 0 1.758-1.888 3.555-2.994 4.394M19.5 0C17.018 0 15 1.951 15 4.35c0 3.225 3.913 5.908 4.08 6.022a.75.75 0 0 0 .83.005C20.078 10.27 24 7.664 24 4.432 24 1.988 21.98 0 19.5 0m-18 14.932c0-1.59 1.374-2.932 3-2.932s3 1.343 3 2.932c0 1.762-1.895 3.562-3 4.399-1.107-.834-3-2.63-3-4.4M4.5 21a.76.76 0 0 0 .41-.122c.168-.11 4.09-2.714 4.09-5.946C9 12.488 6.982 10.5 4.5 10.5S0 12.488 0 14.932c0 3.232 3.922 5.836 4.089 5.946a.76.76 0 0 0 .41.122m0-7.5a1.5 1.5 0 1 1-.001 3.001 1.5 1.5 0 0 1 0-3.001M19.5 3a1.5 1.5 0 1 0 0 3.001 1.5 1.5 0 0 0 0-3m0 10.5h-5.625c-1.034 0-1.875.84-1.875 1.875 0 1.034.84 1.875 1.875 1.875h3a3.38 3.38 0 0 1 3.375 3.375A3.38 3.38 0 0 1 16.875 24H4.5a.75.75 0 1 1 0-1.5h12.375c1.034 0 1.875-.84 1.875-1.875a1.877 1.877 0 0 0-1.875-1.875h-3a3.38 3.38 0 0 1-3.375-3.375A3.38 3.38 0 0 1 13.875 12H19.5a.75.75 0 1 1 0 1.5" clip-rule="evenodd"/></svg>
